X: 21
T: Frible    [A]
O: T.Davis 1748
%R: slip-jig
B: T. Davis "24 Country Dances for the Year 1748"
S: http://imslp.org/wiki/24_Country_Dances_for_the_Year_1748_(Davis,_T.) 2013-11-30
Z: 2013 John Chambers <jc:trillian.mit.edu>
M: 9/8
L: 1/8
K: A
% - - - - - - - - - - - - - - - - - - - - - - - - -
|:\
"A"ABc ABc "E"{c}TB2A | "E"efg "B7"agf "E"e3 :|\
|:\
"Bm"fed def "E7"{f}Te2d |
"A"edc cde "F#(m)"{e}d2c |\
"Bm"dcB Bcd "E7"{d}c2B | "A"cde "E7"dcB "A"A3 :|
% - - - - - - - - - - - - - - - - - - - - - - - - -

%%sep 1 1 500

